Sources/FrostedUI/Resources/Icons.xcassets/strikethrough20.imageset/strikethrough-20.svg

<svg width="20" height="20" viewBox="0 0 20 20" fill="none" xmlns="http://www.w3.org/2000/svg" data-fui-icon="true">
  <path
    d="M15.5103 12.25C15.6332 12.25 15.7447 12.3246 15.7838 12.4412C15.9233 12.858 15.9961 13.3188 15.9961 13.8262C15.9957 15.9936 13.9126 18.4033 10.0127 18.4033C7.98345 18.4032 6.57425 17.7834 5.62012 16.9648C4.67964 16.1577 4.2337 15.2027 4.03711 14.6025C3.90844 14.2091 4.12324 13.7852 4.5166 13.6562C4.91016 13.5274 5.33391 13.7422 5.46289 14.1357C5.60197 14.5603 5.92311 15.2481 6.59668 15.8262C7.25717 16.3929 8.31192 16.9032 10.0127 16.9033C13.2845 16.9033 14.4956 14.9782 14.4961 13.8262C14.4961 13.2276 14.3602 12.8022 14.1602 12.4834C14.0995 12.3867 14.1639 12.25 14.278 12.25H15.5103ZM10.0127 1.59473C14.107 1.59473 15.6887 4.01559 15.9795 5.37695C16.0657 5.78185 15.8072 6.18109 15.4023 6.26758C14.9975 6.35382 14.5983 6.09517 14.5117 5.69043C14.3646 5.00192 13.3799 3.09473 10.0127 3.09473C6.74004 3.09493 5.52743 5.0206 5.52734 6.17188C5.52742 6.77031 5.66225 7.19589 5.8623 7.51465C6.06451 7.83656 6.36551 8.10045 6.77344 8.32422C7.60875 8.78221 8.75305 9.00519 10.063 9.24508C10.0808 9.24834 10.099 9.25 10.1171 9.25H19.25C19.6641 9.25012 19.9999 9.58592 20 10C19.9999 10.4141 19.6641 10.7499 19.25 10.75H0.75C0.335949 10.7499 8.14301e-05 10.4141 0 10C6.593e-05 9.58592 0.335939 9.25013 0.75 9.25H4.57383C4.8601 9.25 5.00381 8.86096 4.82415 8.63808C4.74154 8.53559 4.66384 8.42721 4.5918 8.3125C4.21965 7.71962 4.02742 7.00787 4.02734 6.17188C4.02742 4.00383 6.11342 1.59494 10.0127 1.59473Z"
    fill="currentColor"
  />
</svg>

<svg xmlns="http://www.w3.org/2000/svg" width="20" height="20" fill="none" data-fui-icon="true" viewBox="0 0 20 20"><path fill="currentColor" d="M15.51 12.25c.123 0 .235.075.274.191q.211.625.212 1.385c0 2.168-2.083 4.577-5.983 4.577-2.03 0-3.439-.62-4.393-1.438a5.33 5.33 0 0 1-1.583-2.363.75.75 0 0 1 1.426-.466 3.83 3.83 0 0 0 1.134 1.69c.66.567 1.715 1.077 3.416 1.077 3.271 0 4.483-1.925 4.483-3.077 0-.598-.136-1.024-.336-1.343-.06-.096.004-.233.118-.233zM10.013 1.595c4.094 0 5.676 2.42 5.967 3.782a.751.751 0 0 1-1.468.313c-.147-.688-1.132-2.595-4.5-2.595-3.272 0-4.485 1.926-4.485 3.077 0 .598.135 1.024.335 1.343.203.322.504.585.911.81.836.457 1.98.68 3.29.92a.3.3 0 0 0 .054.005h9.133a.75.75 0 0 1 0 1.5H.75a.75.75 0 0 1 0-1.5h3.824c.286 0 .43-.389.25-.612a3 3 0 0 1-.232-.325c-.372-.593-.565-1.305-.565-2.141 0-2.168 2.086-4.577 5.986-4.577"/></svg>
